dist/svgs/devui-icons/editor/multi-picture.svg

<?xml version="1.0" encoding="UTF-8"?>
<svg width="16px" height="16px" viewBox="0 0 16 16" version="1.1" xmlns="http://www.w3.org/2000/svg" xmlns:xlink="http://www.w3.org/1999/xlink">
    <title>释义_富文本编辑/multi-picture copy</title>
    <desc>Created with Sketch.</desc>
    <g id="释义_富文本编辑/multi-picture-copy" stroke="none" stroke-width="1" fill="none" fill-rule="evenodd">
        <path d="M2,14 L0,14 L0,1 L14,1 L14,3 L16,3 L16,15 L2,15 L2,14 Z M2,13 L2,3 L13,3 L13,2 L1,2 L1,13 L2,13 Z M15,4 L3,4 L3,10.4008789 L6.31408691,8.98364258 L10.3170291,11.4516297 L12.4406369,10.132147 L15,11.739502 L15,4 Z M15,12.6766405 C14.9181855,12.6766985 14.8354544,12.6587034 14.7622713,12.6210396 L12.416506,11.4137834 L10.2543995,12.4152453 L6.3786541,10.0881354 L3.19166297,11.3182824 C3.13002812,11.3420728 3.06451753,11.3533222 3,11.3532833 L3,14 L15,14 L15,12.6766405 Z M13,8 C12.4477153,8 12,7.55228475 12,7 C12,6.44771525 12.4477153,6 13,6 C13.5522847,6 14,6.44771525 14,7 C14,7.55228475 13.5522847,8 13,8 Z" id="形状" fill="#293040" fill-rule="nonzero"></path>
    </g>
</svg>

<svg xmlns="http://www.w3.org/2000/svg" viewBox="0 0 16 16"><path d="M2 14H0V1h14v2h2v12H2v-1zm0-1V3h11V2H1v11h1zm13-9H3v6.4l3.314-1.416 4.003 2.468 2.124-1.32L15 11.74V4zm0 8.677a.52.52 0 01-.238-.056l-2.345-1.207-2.163 1.001-3.875-2.327-3.187 1.23a.533.533 0 01-.192.035V14h12v-1.323zM13 8a1 1 0 110-2 1 1 0 010 2z"/></svg>
